X: 120
T: The Hurdy Gurdy Man
C: Carl Wilhelm
S: From Songs of Childhood
%R: air, waltz
B: "The Everyday Song Book", 1927
F: http://www.library.pitt.edu/happybirthday/pdf/The_Everyday_Song_Book.pdf
Z: 2017 John Chambers <jc:trillian.mit.edu>
M: 3/8
L: 1/8
K: E
% - - - - - - - - - - - - - - - - - - - - - - - - - - - - -
[| B B c | B2 G | B B c | B2 G | G E F |
w: 1.~Out in the sun-shine, Free as the breez-es,   Play-ing sweet
w: 2.~Gay as a gyp-sy       ev-'ry-where stray-ing, Wel-come as
w: 3.~When school is o-ver, I'll trav-el yon-der,  'Way in the
%
G A B | c B G | F3 | A A B | A2 F | A A B |
w: mu-sic wher-ev-er he goes;          Mak-ing his mon-key act when he
w: Christ-mas in vil-lage and town;    Loved for his mon-key, loved for his
w: land where the trick mon-keys play; Then thro' the world with mu-sic I'll
%
A2 F | F G A | G c B | A G F | E3 |]
w: pleas-es, All the fine tricks that the fun-ny man knows.
w: play-ing, Get-ting more pen-nies than we'll ev-er own.
w: wan-der,  Watch-ing my mon-key do tricks ev-'ry day.
% - - - - - - - - - - - - - - - - - - - - - - - - - - - - -

%%sep 1 1 500
%%sep 1 1 500

